**kern	**dynam
*clefG2	*
*k[b-e-]	*
*B-:	*
*M4/4	*
(>4ff	f
=	=
4bb-)	.
4bb-'	.
4bb-'	.
=1	=1
(>8bb-L	.
8aaJ)	.
4aa'	.
4bb-'	.
=2	=2
(>4.ccc	.
8bb-)	.
4aa'	.
=3	=3
4bb-'	.
4ff'	.
4ff'	p
=4	=4
(>8ffL	.
8ee-)	.
(>8ee-	.
8dd)	.
8dd	.
8ccJ	.
=5	=5
(>8ffL	.
8ee-)	.
(>8ee-	.
8dd)	.
(>8dd	.
8ccJ)	.
=6	=6
(>8.ddtL	.
32ccLL	.
32ddJJJ)	.
4ee-	.
4ee-	.
=7	=7
4dd	.
4r	.
(>4ff	f
=8	=8
!!linebreak:original
4ccc)	.
4ccc'	.
4ccc'	.
=9	=9
[8cccL	.
8bb-J	.
4bb-'	.
4aa'	.
=10	=10
(8aaL	.
8ggJ)	.
(>8bb-L	.
8ggJ)	.
(>8ffL	.
8eenJ)	.
=11	=11
4ff	.
4r	.
=12!|:	=12!|:
(>4f	p
=	=
4ff')	.
(>4ff	.
4ee-)	.
=13	=13
4dd-X'	.
(>4dd-	.
4cc)	.
=14	=14
4b-'	.
(>4b-	.
4a)	.
=15	=15
4b-'	.
4b-	.
4cc	.
=16	=16
4dd-XT	.
4cc	.
8.ffL	.
16ccJk	.
=17	=17
4dd-XT	.
4cc	.
4r	.
=18	=18
4r	.
4r	.
(>4b-	f
=19	=19
4ee-)	.
4ee-'	.
4ee-'	.
=20	=20
!!linebreak:original
4dd	.
4r	.
(>4b-	.
=21	=21
4gg)	.
4gg'	.
4gg'	.
=22	=22
4ff	.
(>8bb-L	.
8ff)	.
(>8gg	.
8ee-J)	.
=23	=23
4ff	.
(>8bb-L	.
8ff)	.
(>8ee-	.
8ddJ)	.
=24	=24
4cc	.
4b-	.
4a	.
=25	=25
2b-	.
=26:|!	=26:|!
2b-	.
4r	.
=27!|:	=27!|:
4ff	f
(>8ee-L	p
8dd	.
8cc	.
8b-J)	.
=28	=28
4gg	f
(>8ffL	p
8ee-	.
8dd	.
8ccJ)	.
=29	=29
4ee-	f
(>8ddL	p
8cc	.
8b-	.
8aJ)	.
=30	=30
4b-	.
4f	.
4r	.
=31	=31
!LO:TX:i:t=Menuetto D.C.	!
4cc'	.
(>4cc	.
4cc#X)	.
=32	=32
!!linebreak:original
2dd	.
(>12ffL	.
12dd	.
12b-J)	.
=33	=33
4a	.
4r	.
4gT	.
=34	=34
2f	.
4r	.
=35:|!|:	=35:|!|:
4ff'	.
(4ff	.
4ff#X)	.
=36	=36
4gg	.
(8bb-L	.
8gg)	.
(>8ee-	.
8ddJ)	.
=37	=37
4cc	.
(>8ggL	.
8ee-)	.
(>8cc	.
8b-J)	.
=38	=38
4qqb-/	.
2a	.
=39	=39
4ff	f
(>8ee-L	p
8dd	.
8cc	.
8b-J)	.
=40	=40
4gg	f
(>8ffL	p
8ee-	.
8dd	.
8ccJ)	.
=41	=41
4dd	.
4b-	.
4a	.
=42	=42
2b-	.
4r	.
=43:|!	=43:|!
2b-	.
==	==
*-	*-
!!!RDF**kern: > = above
